source/svgs/bowtie/uEA34-repo-tfvc.svg

<svg xmlns="http://www.w3.org/2000/svg" viewBox="0 0 448 448"><path d="M137.146 448h-24.466c4.244-8.785 7.133-18.346 8.102-28.484 3.49 10.63 9.23 20.173 16.364 28.484zm16.98-273.016c4.747-5.773 10.44-10.63 16.532-14.984h-37.78c7.558 4.3 14.782 9.14 21.247 14.984zm-154.126-142.984v96h448v-96h-448zm304 196.578c0 43.922-33.656 80.14-76.53 84.188 33.78 11.078 58.25 42.922 58.25 80.375 0 21.03-7.993 40.05-20.737 54.86h151.017v-288.001h-147.455c21.38 15.363 35.455 40.295 35.455 68.578zm-66.286 164.565c0 20.214-16.36 36.57-36.57 36.57s-36.572-16.356-36.572-36.57c0-6.786 1.964-13.036 5.18-18.464l-51.965-51.968c-12.395 9.607-27.75 15.57-44.643 15.57-2.967 0-5.786-.535-8.643-.892l-10.494 42.07c11.355 6.18 19.14 18.11 19.14 31.966 0 20.214-16.358 36.57-36.57 36.57s-36.577-16.351-36.577-36.565c0-20.106 16.217-36.392 36.286-36.535l10.426-41.75c-27.28-10.61-46.712-36.965-46.712-68.002 0-40.393 32.75-73.143 73.143-73.143 31.033 0 57.43 19.426 68.038 46.712l41.716-10.426c.139-20.072 16.423-36.286 36.533-36.286 20.21 0 36.57 16.357 36.57 36.57 0 20.18-16.36 36.572-36.57 36.572-13.858 0-25.787-7.786-31.965-19.18l-42.035 10.538c.322 2.857.856 5.676.856 8.643 0 16.893-5.964 32.25-15.57 44.643l51.963 51.964c5.43-3.214 11.68-5.18 18.46-5.18 20.212 0 36.57 16.36 36.57 36.573zm-128-128c0-20.214-16.36-36.57-36.57-36.57s-36.572 16.356-36.572 36.57 16.36 36.57 36.57 36.57 36.572-16.356 36.572-36.57z"/></svg>

<svg xmlns="http://www.w3.org/2000/svg" viewBox="0 0 448 448"><path d="M137.146 448H112.68c4.244-8.785 7.133-18.346 8.102-28.484 3.49 10.63 9.23 20.173 16.364 28.484zm16.98-273.016c4.747-5.773 10.44-10.63 16.532-14.984h-37.78c7.558 4.3 14.782 9.14 21.247 14.984zM0 32v96h448V32H0zm304 196.578c0 43.922-33.656 80.14-76.53 84.188 33.78 11.078 58.25 42.922 58.25 80.375 0 21.03-7.993 40.05-20.737 54.86H416V160H268.545C289.925 175.363 304 200.295 304 228.578zm-66.286 164.565c0 20.214-16.36 36.57-36.57 36.57s-36.572-16.356-36.572-36.57c0-6.786 1.964-13.036 5.18-18.464l-51.965-51.968c-12.395 9.607-27.75 15.57-44.643 15.57-2.967 0-5.786-.535-8.643-.892l-10.494 42.07c11.355 6.18 19.14 18.11 19.14 31.966 0 20.214-16.358 36.57-36.57 36.57S0 431.644 0 411.43c0-20.106 16.217-36.392 36.286-36.535l10.426-41.75C19.432 322.535 0 296.18 0 265.143 0 224.75 32.75 192 73.143 192c31.033 0 57.43 19.426 68.038 46.712l41.716-10.426C183.036 208.214 199.32 192 219.43 192c20.21 0 36.57 16.357 36.57 36.57 0 20.18-16.36 36.572-36.57 36.572-13.858 0-25.787-7.786-31.965-19.18L145.43 256.5c.322 2.857.856 5.676.856 8.643 0 16.893-5.964 32.25-15.57 44.643l51.963 51.964c5.43-3.214 11.68-5.18 18.46-5.18 20.212 0 36.57 16.36 36.57 36.573zm-128-128c0-20.214-16.36-36.57-36.57-36.57s-36.572 16.356-36.572 36.57 16.36 36.57 36.57 36.57 36.572-16.356 36.572-36.57z"/></svg>
